%
(1001)
(T1  D=12. CR=0. - ZMIN=-20. - FLAT END MILL)
(T2  D=6. CR=0. - ZMIN=-11.5 - FLAT END MILL)
N10 G90 G94 G17 G91.1
N15 G21
N20 G53 G0 Z0.
(FACE1)
N25 M9
N30 T1 M6
N35 T2
N40 S8090 M3
N45 G54
N50 M8
N60 G0 X60.591 Y-42.195
N65 G43 Z15. H1
N70 G0 Z5.
N75 G1 Z0.2 F2330.
N80 G18 G3 X59.391 Z-1. I-1.2 K0.
N85 G1 X-59.391
N90 X-59.5
N95 G17 G2 Y-33.729 I0. J4.233
N100 G1 X59.5
N105 G3 Y-25.264 I0. J4.233
N110 G1 X-59.5
N115 G2 Y-16.798 I0. J4.233
N120 G1 X59.5
N125 G3 Y-8.333 I0. J4.233
N130 G1 X-59.5
N135 G2 Y0.133 I0. J4.233
N140 G1 X59.5
N145 G3 Y8.598 I0. J4.233
N150 G1 X59.347
N155 X-59.347
N160 G2 Y17.064 I0. J4.233
N165 G1 X-57.943
N170 X57.943
N175 G3 Y25.529 I0. J4.233
N180 G1 X54.922
N185 X-54.922
N190 G2 Y33.995 I0. J4.233
N195 G1 X-49.932
N200 X49.932
N205 G3 Y42.46 I0. J4.233
N210 G1 X42.062
N215 X-42.062
N220 G18 G3 X-43.262 Z0.2 I0. K1.2
N225 G0 Z15.
N230 G17
(CENTRE HOLE)
N235 M8
N240 G0 X-2.297 Y-9.428
N245 Z15.
N250 Z5.
N255 G1 Z3.7 F2330.
N260 G3 X-2.275 Y-9.434 Z3.467 I1.23 J4.329 F1500.
N265 X-2.21 Y-9.451 Z3.243 I1.208 J4.335
N270 X-2.103 Y-9.478 Z3.036 I1.143 J4.352
N275 X-1.959 Y-9.51 Z2.855 I1.037 J4.379
N280 X-1.801 Y-9.539 Z2.719 I0.892 J4.411
N285 X-1.62 Y-9.565 Z2.613 I0.734 J4.44
N290 X-1.423 Y-9.585 Z2.541 I0.553 J4.466
N295 X-0.711 Y-0.613 Z-1.247 I0.356 J4.486
N300 X-1.423 Y-9.585 Z-5.035 I-0.356 J-4.486
N305 X-0.711 Y-0.613 Z-8.823 I0.356 J4.486
N310 X-1.423 Y-9.585 Z-12.611 I-0.356 J-4.486
N315 X-0.711 Y-0.613 Z-16.399 I0.356 J4.486
N320 X-2.261 Y-9.438 Z-19.959 I-0.356 J-4.486
N325 X-2.112 Y-9.476 Z-19.99 I1.194 J4.339
N330 X-1.959 Y-9.51 Z-20. I1.045 J4.377
N335 X-0.246 Y-0.945 I0.857 J4.282
N340 G1 X-0.377 Y-0.919 F2330.
N345 G3 X-0.615 Y-0.951 I-0.073 J-0.361
N350 G1 X-0.83 Y-1.059
N355 G3 X-1.348 Y-1.651 I0.472 J-0.935
N360 G1 X-1.404 Y-1.815
N365 G3 X-1.338 Y-2.939 I1.391 J-0.482
N370 G1 X-1.235 Y-3.152
N375 G3 X-0.151 Y-4.162 I1.849 J0.898
N380 G1 X0.116 Y-4.269
N385 G3 X2.052 Y-4.328 I1.048 J2.61
N390 G1 X2.32 Y-4.239
N395 G3 X4.213 Y-2.764 I-1.135 J3.409
N400 G1 X4.485 Y-2.337
N405 G3 X5.066 Y1.391 I-3.952 J2.525
N410 X4.31 Y3.062 I-5.398 J-1.433
N415 G1 X4.273 Y3.118
N420 G3 X2.933 Y4.546 I-4.979 J-3.33
N425 G1 X2.88 Y4.586
N430 G3 X1.043 Y5.565 I-3.884 J-5.078
N435 G1 X0.98 Y5.586
N440 G3 X-1.195 Y5.944 I-2.177 J-6.439
N445 G1 X-1.428
N450 G3 X-3.402 Y5.621 I-0.001 J-6.181
N455 G1 X-4.8 Y5.15
N460 G3 X4.8 Y-7.65 I4.8 J-6.4
N465 X-4.8 Y5.15 I-4.8 J6.4
N470 G2 X-5.023 Y5.137 I-0.121 J0.162
N475 G3 X-5.245 Y5.118 I-0.098 J-0.169
N480 X5.245 Y-7.618 I5.245 J-6.368
N485 X-5.245 Y5.118 I-5.245 J6.368
N490 G2 X-5.467 Y5.095 I-0.129 J0.156
N495 G3 X-5.688 Y5.067 I-0.09 J-0.174
N500 X5.688 Y-7.567 I5.688 J-6.317
N505 X-5.688 Y5.067 I-5.688 J6.317
N510 X-5.865 Y4.867 Z-19.97 I0.803 J-0.892
N515 X-5.988 Y4.646 Z-19.881 I0.98 J-0.693
N520 X-6.057 Y4.43 Z-19.738 I1.103 J-0.472
N525 X-6.083 Y4.242 Z-19.548 I1.173 J-0.255
N530 X-6.082 Y4.099 Z-19.321 I1.198 J-0.067
N535 X-6.074 Y4.011 Z-19.067 I1.198 J0.076
N540 X-6.069 Y3.981 Z-18.8 I1.189 J0.164
N545 G0 Z15.
(BEARING HOUSING)
N555 M8
N560 G0 X-3. Y8.752
N565 Z15.
N570 Z5.
N575 G1 Z3.7 F2330.
N580 G3 Y8.781 Z3.44 I-4.5 J-0.002 F1500.
N585 X-3.001 Y8.865 Z3.193 I-4.5 J-0.031
N590 X-3.007 Y9. Z2.969 I-4.499 J-0.115
N595 X-3.021 Y9.18 Z2.781 I-4.493 J-0.25
N600 X-3.047 Y9.396 Z2.636 I-4.479 J-0.43
N605 X-3.088 Y9.636 Z2.541 I-4.453 J-0.646
N610 X-11.912 Y7.864 Z-1.247 I-4.412 J-0.886
N615 X-3.088 Y9.636 Z-5.035 I4.412 J0.886
N620 X-11.912 Y7.864 Z-8.823 I-4.412 J-0.886
N625 X-3.088 Y9.636 Z-12.611 I4.412 J0.886
N630 X-9.945 Y12.528 Z-14.959 I-4.412 J-0.886
N635 X-10.073 Y12.442 Z-14.99 I2.445 J-3.778
N640 X-10.2 Y12.35 Z-15. I2.573 J-3.692
N645 X10.2 Y-14.85 I10.2 J-13.6 F2330.
N650 X-10.2 Y12.35 I-10.2 J13.6
N655 G2 X-10.424 Y12.337 I-0.122 J0.162
N660 G3 X-10.648 Y12.322 I-0.101 J-0.172
N665 X10.648 Y-14.822 I10.648 J-13.572
N670 X-10.648 Y12.322 I-10.648 J13.572
N675 G2 X-10.871 Y12.304 I-0.125 J0.16
N680 G3 X-11.094 Y12.284 I-0.097 J-0.174
N685 X11.094 Y-14.784 I11.094 J-13.534
N690 X-11.094 Y12.284 I-11.094 J13.534
N695 X-11.28 Y12.093 Z-14.97 I0.761 J-0.928
N700 X-11.414 Y11.878 Z-14.881 I0.947 J-0.737
N705 X-11.493 Y11.665 Z-14.738 I1.08 J-0.522
N710 X-11.527 Y11.478 Z-14.548 I1.159 J-0.309
N715 X-11.533 Y11.336 Z-14.321 I1.194 J-0.123
N720 X-11.529 Y11.247 Z-14.067 I1.2 J0.02
N725 X-11.526 Y11.217 Z-13.8 I1.195 J0.109
N730 G0 Z15.
N740 M5
N745 G53 Z0.
(2D CONTOUR1)
N750 M9
N755 M1
N760 T2 M6
N765 T1
N770 S10000 M3
N775 G54
N780 M8
N790 G0 X-36.823 Y24.274
N795 G43 Z15. H2
N800 G0 Z5.
N805 G1 Z4. F30.
N810 Z3.105
N815 X-36.817 Y24.27 Z3.011
N820 X-36.799 Y24.257 Z2.92
N825 X-36.77 Y24.236 Z2.833
N830 X-36.73 Y24.207 Z2.752
N835 X-36.68 Y24.172 Z2.681
N840 X-36.622 Y24.13 Z2.62
N845 X-36.556 Y24.084 Z2.571
N850 X-36.485 Y24.033 Z2.534
N855 X-36.411 Y23.98 Z2.513
N860 X-36.334 Y23.925 Z2.505
N865 X-35.846 Y23.577 F1440.
N870 G3 X-35.009 Y23.717 I0.348 J0.488
N875 G2 X-0.078 Y41.75 Z-2.87 I35.009 J-24.967
N880 X-0.039 Z-2.874 I0.078 J-43.
N885 X0. Z-2.875 I0.039 J-43.
N890 X43. Y-1.25 I0. J-43.
N895 G1 Y-34.75
N900 G2 X40. Y-37.75 I-3. J0.
N905 G1 X-40.
N910 G2 X-43. Y-34.75 I0. J3.
N915 G1 Y-1.25
N920 G2 X0. Y41.75 I43. J0.
N925 X43. Y-1.25 Z-5.192 I0. J-43.
N930 G1 Y-17.516 Z-5.75
N935 Y-34.75
N940 G2 X40. Y-37.75 I-3. J0.
N945 G1 X-40.
N950 G2 X-43. Y-34.75 I0. J3.
N955 G1 Y-1.25
N960 G2 X43. I43. J0.
N965 G1 Y-17.516
N970 Y-34.75 Z-6.341
N975 G2 X40. Y-37.75 Z-6.503 I-3. J0.
N980 G1 X-21.863 Z-8.625
N985 X-39.5
N990 X-40.
N995 G2 X-43. Y-34.75 I0. J3.
N1000 G1 Y-1.25
N1005 G2 X43. I43. J0.
N1010 G1 Y-34.75
N1015 G2 X40. Y-37.75 I-3. J0.
N1020 G1 X-21.863
N1025 X-40. Z-9.247
N1030 G2 X-43. Y-34.75 Z-9.409 I0. J3.
N1035 G1 Y-1.25 Z-10.558
N1040 G2 X-34.525 Y24.382 Z-11.5 I43. J0.
N1045 X43. Y-1.25 I34.525 J-25.632
N1050 G1 Y-34.75
N1055 G2 X40. Y-37.75 I-3. J0.
N1060 G1 X-40.
N1065 G2 X-43. Y-34.75 I0. J3.
N1070 G1 Y-1.25
N1075 G2 X-34.525 Y24.382 I43. J0.
N1080 G3 X-34.649 Y25.222 I-0.482 J0.358
N1085 G1 X-35.131 Y25.579
N1090 X-35.206 Y25.635 Z-11.493
N1095 X-35.28 Y25.69 Z-11.471
N1100 X-35.35 Y25.742 Z-11.435
N1105 X-35.414 Y25.789 Z-11.385
N1110 X-35.472 Y25.832 Z-11.324
N1115 X-35.521 Y25.869 Z-11.253
N1120 X-35.56 Y25.898 Z-11.172
N1125 X-35.589 Y25.919 Z-11.085
N1130 X-35.607 Y25.933 Z-10.994
N1135 X-35.613 Y25.937 Z-10.9
N1140 G0 Z15.
N1150 M9
N1155 G53 Z0.
N1160 M30
%
